X: 735
T: Aileen's Slow
R: jig
M: 6/8
K: Dmajor
A3|:D2A AGE|EFA GFD|EAc d2e|dcA E3|
B2G B/c/dc|B2A AGE|F2A AGF|E3 zGF|
D2A AGF|FGA GFD|B2G B/c/dc|dAG FED|
EFA dfg|a2g fdA|D2A EAc|1 d3 z3:|2 d3 dec||
|:~B3 BAF|FEF G2A|AGF Adf|~g3 f2a|
e2d efg|fed B2F|GdG FdF|E3 EDC|
D3 AGF|FGA GFD|~B2G B/c/dc|dAG FED|
EFA dfg|~a2g fdA|D2A EAc|1 d3 dec:|2 d3 z3||

